X:1
T:Title
%%score { ( 1 4 ) | ( 2 3 ) }
L:1/8
M:4/4
K:Db
V:1 treble nm="Grand Piano"
V:4 treble 
V:2 bass 
V:3 bass 
V:1
 z4 z[Q:1/4=90] F_F=F | [F,D]3 [G,E][K:treble] [A,F]D F>A | [B,G]4- [B,G]GGG | %3
 [CG]3 [CG] [CG]G F>_F | [A,F]4- [A,F]F_F=F | D3 [G,E][K:treble] [A,F]D F>A | [B,G]4- [B,G]GAG | %7
 [A,F]3 D [A,F]E[K:bass] [F,D]>C |[M:5/8] [F,D]-[F,D]- [F,D]3 |[M:3/8][K:treble] [CB][CE][CF] | %10
[M:4/4] [CG]3 [CG] [B,CG][B,CG] [CF]>[C_F] | F4- FFFF | E3 E BB F>=G | [CA]4- [CA]ABA | %14
 d3 A AA G>F | B4- BedB |[M:17/16] A/-A/-A-<AdFA[CF]3/2[CE] |[M:5/8] D-D- D3 |] %18
V:2
 z4 z A,=G,A, | D,,A,,D,A,, z F, A,>C | E,,B,,E,B,, z DCB, | z4 A,2 z2 | D,,A,,D,A,, z A,=G,A, | %5
 D,,A,,D,A,, z F, A,>_C | E,,B,,E,B,, E,B,CB, | A,,B,, z F, z G, z z/ E,/ | %8
[M:5/8] D,,A,,D, A,,D,, |[M:3/8] [A,,G,][A,,G,][A,,F,] | %10
[M:4/4] [A,,E,]3 [A,,E,] A,,A,, [A,,A,]>[A,,A,] | [D,A,D]4- [D,A,D][D,A,D][D,A,D][=D,A,_C] | %12
 [E,A,C]3 [E,A,C] [E,=G,D][E,G,D] [E,B,D]>[E,B,D] | [A,,A,]4- [A,,A,][G,A,C][G,A,C][G,A,C] | %14
 [F,A,D]3 [F,A,D] [F,A,D][F,A,D] [E,A,C]>[D,A,D] | [G,D]4- [G,D][K:treble][G,B,G][G,B,G][G,DG] | %16
[M:17/16] [A,DF]/-[A,DF]/-[A,DF]-<[A,DF][A,F][K:bass][A,D][F,A,D][A,,A,]3/2[A,,G,] | %17
[M:5/8] [D,F,]-[D,F,]- [D,F,]3 |] %18
V:3
 x8 | z4 D,2 z2 | z4 E,2 z2 | A,,E,A,E, z B, A,>=G, | z4 D,2 z2 | z4 D,2 z2 | x8 | %7
 z2 A,,2 A,,2 A,,2 |[M:5/8] x5 |[M:3/8] x3 |[M:4/4] x8 | x8 | x8 | x8 | x8 | x5[K:treble] x3 | %16
[M:17/16] x4[K:bass] x9/2 |[M:5/8] x5 |] %18
V:4
 x8 | x4[K:treble] x4 | x8 | x8 | x8 | F,2 z2[K:treble] z4 | x8 | x6[K:bass] x2 | %8
[M:5/8] z z z2 D, |[M:3/8][K:treble] x3 |[M:4/4] x8 | x8 | x8 | x8 | x8 | x8 |[M:17/16] x17/2 | %17
[M:5/8] x5 |] %18

